src/assets/duotone/Microscope.svg

<svg width="24" height="24" viewBox="0 0 24 24"  xmlns="http://www.w3.org/2000/svg">
<path d="M14.8401 10.8996L20.5001 7.10959C21.0701 6.72959 21.2201 5.94962 20.8401 5.38962L19.0201 2.67959C18.6401 2.10959 17.8601 1.9596 17.3001 2.3396L11.6401 6.12961L14.8401 10.8996Z" />
<path d="M14.5202 10.4196L12.7602 11.5996L10.0902 13.3896L9.74017 13.6196L9.58018 13.3796L7.34017 10.0396L7.18018 9.79959L11.9602 6.59961L14.5202 10.4196Z" />
<path d="M5.6401 16.02L9.5901 13.38L7.3501 10.04L3.4001 12.68C2.9401 12.99 2.8201 13.61 3.1301 14.07L4.2601 15.75C4.5601 16.21 5.1801 16.33 5.6401 16.02Z" />
<path opacity="0.4" d="M16.5599 21.8096C16.4599 21.8496 16.3499 21.8796 16.2499 21.8796C15.9599 21.8796 15.6899 21.7096 15.5599 21.4296L11.8299 13.1896L8.0499 21.4396C7.9199 21.7096 7.6499 21.8796 7.3599 21.8796C7.2599 21.8796 7.1499 21.8496 7.0499 21.8096C6.6799 21.6296 6.5099 21.1896 6.6799 20.8096L10.0899 13.3896L12.7599 11.5996L16.9299 20.8196C17.0999 21.1896 16.9299 21.6396 16.5599 21.8096Z" />
</svg>

<?xml version="1.0" encoding="UTF-8"?>
<svg width="24" height="24" viewBox="0 0 24 24" xmlns="http://www.w3.org/2000/svg">
 <path d="m14.84 10.9 5.66-3.79c0.57-0.38 0.72-1.16 0.34-1.72l-1.82-2.71c-0.38-0.57-1.16-0.71999-1.72-0.33999l-5.66 3.79 3.2 4.77z"/>
 <path d="m14.52 10.42-1.76 1.18-2.67 1.79-0.35003 0.23-0.15999-0.24-2.24-3.34-0.15999-0.24001 4.78-3.2 2.56 3.82z"/>
 <path d="m5.6401 16.02 3.95-2.64-2.24-3.34-3.95 2.64c-0.46 0.31-0.58 0.93-0.27 1.39l1.13 1.68c0.3 0.46 0.92 0.58 1.38 0.27z"/>
 <path d="m16.56 21.81c-0.1 0.04-0.21 0.07-0.31 0.07-0.29 0-0.56-0.17-0.69-0.45l-3.73-8.24-3.78 8.25c-0.13 0.27-0.4 0.44-0.69 0.44-0.1 0-0.21-0.03-0.31-0.07-0.37-0.18-0.54-0.62-0.37-1l3.41-7.42 2.67-1.79 4.17 9.22c0.17 0.37 0 0.82-0.37 0.99z" opacity=".4"/>
</svg>
